X: 98
T:Swanton Coffee House. WM.098
M:2/4
L:1/16
Q:100
S:Wm.Mittell's MS,New Romney,Kent,1799
R:Reel
O:England
A:Kent
N:
D:
H:
Z:vmp.Chris Partington
W:Cast off 2 couple lead up to the top and cast off Hands at the
W:bottom,Right and left at the top(/
K:CDor
BFDB, DFAd|cBcd cdcB|BFDB, DFBd|fgfd "*"B2B2:|!
|:BFcF dFcF|BFdB "*"c2c2|BFBd fbfd|cBcd "*"B2B2:|]
W:Quavers in bars 4,6,8 shown as crotchets in MS |]
